X: 1853
T: Samuel De Santi's Schottische
C:Bob Rummery, Sorrento, WA
B: australian traditional tunes wiki
M:4/4
L:1/8
R: Schottische
Q: 1/4=100
K:D
V:1 
(3ABd|:"D"f2dA"G"B2G2|"D"A2AGF2A2|
"G"B2GB "D"AF DF|"A7"G2E2E2 (3ABd|
"D"f2dA"G"B2G2|"D"AB AGF2A2|
"G"B2dB"A7"c2ec|"D"d2d2d2::!
fd|"A"c2c2e2e2|"D"fg fed2ff|
"G"g2Bg"D"f2Af|"A"ed cBA2 (3ABd|
"D"f2dA"G"B2G2|"D"AB AGF2A2|
"G"GB dB "A7"cd ec|"D"d2d2d2:|
% abcbook-tune_id 6342d53aa4f849daa07dc7dd


% abcbook-boost 0
% abcbook-tablature 
% abcbook-transpose 
% abcbook-lastupdated 1665324388272
% abcbook-soundfonts 
% abcbook-repeats 1
% NFF Book 2008

